apps/statesvisited/state-images/NJ.svg

<svg height="635" width="1182" xmlns="http://www.w3.org/2000/svg"><path d="m843.83462 193.28917 16.6301 8.01809-.5939 4.45449s-.297 1.78179-.5939 3.56359c-.297 1.7818 3.2666 2.6727 3.5636 4.45449.2969 1.7818-1.1879 2.37573-1.1879 4.4545 0 2.07876 1.4848 8.01808.5939 9.79988-.8909 1.78179-5.9393 7.12719-5.9393 8.61202s.5939 3.26662.5939 3.26662-2.0787 6.23629-3.2666 5.04843c-1.1878-1.18787 0-3.5636-1.1878-4.75146-1.1879-1.18786-3.8606-3.86056-5.0485-3.86056-1.1878 0-2.0787.59393-2.0787.59393l-3.5636-8.31505s3.5636-2.6727 4.1575-5.93932c.5939-3.26663 2.6727-4.15753.8909-6.23629s-3.8606-1.48483-4.1575-4.75146c-.297-3.26663-1.1879-10.69078-.8909-12.76954.2969-2.07877 2.0787-6.23629 2.0787-5.64236z" fill="#20639b" fill-rule="evenodd" opacity=".9" stroke="#000"/></svg>

<?xml version="1.0" encoding="UTF-8" standalone="no"?>
<!-- Created with Inkscape (http://www.inkscape.org/) -->
<svg
   xmlns:dc="http://purl.org/dc/elements/1.1/"
   xmlns:cc="http://web.resource.org/cc/"
   xmlns:rdf="http://www.w3.org/1999/02/22-rdf-syntax-ns#"
   xmlns:svg="http://www.w3.org/2000/svg"
   xmlns="http://www.w3.org/2000/svg"
   xmlns:xlink="http://www.w3.org/1999/xlink"
   xmlns:sodipodi="http://sodipodi.sourceforge.net/DTD/sodipodi-0.dtd"
   xmlns:inkscape="http://www.inkscape.org/namespaces/inkscape"
   id="svg1923"
   sodipodi:version="0.32"
   inkscape:version="0.44"
   width="1182"
   height="635"
   version="1.0"
   sodipodi:docbase="/Users/amyshore/Desktop"
   sodipodi:docname="usa.svg">
  <metadata
     id="metadata1928">
    <rdf:RDF>
      <cc:Work
         rdf:about="">
        <dc:format>image/svg+xml</dc:format>
        <dc:type
           rdf:resource="http://purl.org/dc/dcmitype/StillImage" />
      </cc:Work>
    </rdf:RDF>
  </metadata>
  <defs
     id="defs1926" />
  <sodipodi:namedview
     inkscape:window-height="752"
     inkscape:window-width="1280"
     inkscape:pageshadow="2"
     inkscape:pageopacity="0.0"
     guidetolerance="10.0"
     gridtolerance="10.0"
     objecttolerance="10.0"
     borderopacity="1.0"
     bordercolor="#666666"
     pagecolor="#ffffff"
     id="base"
     inkscape:zoom="0.59527559"
     inkscape:cx="775.234"
     inkscape:cy="319.32597"
     inkscape:window-x="0"
     inkscape:window-y="22"
     inkscape:current-layer="layer2" />
  <g
     inkscape:groupmode="layer"
     id="layer1"
     inkscape:label="bg"
     style="opacity:1;display:none"
     sodipodi:insensitive="true">
    <image
       xlink:href="ElectoralCollege1996-Large.png"
       sodipodi:absref="/Users/amyshore/Desktop/ElectoralCollege1996-Large.png"
       width="1182"
       height="635"
       id="image1930"
       x="-1.3571358"
       y="1.6798911" />
  </g>
  <g
     inkscape:groupmode="layer"
     id="layer2"
     inkscape:label="vector"
     style="opacity:0.9;display:inline"> <path style="fill:#20639B;fill-opacity:1;fill-rule:evenodd;stroke:black;stroke-width:1px;stroke-linecap:butt;stroke-linejoin:miter;stroke-opacity:1" d="M 843.83462,193.28917 L 860.46472,201.30726 L 859.87082,205.76175 C 859.87082,205.76175 859.57382,207.54354 859.27692,209.32534 C 858.97992,211.10714 862.54352,211.99804 862.84052,213.77983 C 863.13742,215.56163 861.65262,216.15556 861.65262,218.23433 C 861.65262,220.31309 863.13742,226.25241 862.24652,228.03421 C 861.35562,229.816 856.30722,235.1614 856.30722,236.64623 C 856.30722,238.13106 856.90112,239.91285 856.90112,239.91285 C 856.90112,239.91285 854.82242,246.14914 853.63452,244.96128 C 852.44672,243.77341 853.63452,241.39768 852.44672,240.20982 C 851.25882,239.02196 848.58612,236.34926 847.39822,236.34926 C 846.21042,236.34926 845.31952,236.94319 845.31952,236.94319 L 841.75592,228.62814 C 841.75592,228.62814 845.31952,225.95544 845.91342,222.68882 C 846.50732,219.42219 848.58612,218.53129 846.80432,216.45253 C 845.02252,214.37377 842.94372,214.9677 842.64682,211.70107 C 842.34982,208.43444 841.45892,201.01029 841.75592,198.93153 C 842.05282,196.85276 843.83462,192.69524 843.83462,193.28917 z " id="path11691" />   </g>
</svg>
